X: 77
T: In Memory Of Coleman
C: Ed Reavy
R: Reel
O: Ireland
M: 4/4
L: 1/8
Z: Svante Kvarnstr\"om
P: AB
K: Gm
[P: A]DGBd cBGF|DF~F2 GFDF|GABc dgga|b/a/gaf dgga|
(ab)ag gfdc|B/c/dBG FDCF|DGBd c2Bc|1dgdc BGGF:|2dgdc BGGA||
[P: B]|:(AB)Bd g3f|=ec~c2 AF~F2|G z g=e fdcA|FAcA BGGA| 
(AB)fB DBfB|DBfB AF~F2|G3B dBcA|1B/c/dcA G3A:|2B/c/dcA G3F|]

